img/footer/youtube.svg

<svg width="40" height="40" viewBox="0 0 40 40" fill="none" xmlns="http://www.w3.org/2000/svg">
<rect x="0.949824" y="0.393305" width="38.5439" height="38.5439" rx="19.272" stroke="#4C4C4C" stroke-width="0.786611"/>
<path d="M25.6834 13.0426C26.7322 13.1453 28.0957 13.0426 28.8298 13.8644C29.6689 14.6863 29.7738 16.0219 29.7738 17.0492C29.8787 18.282 29.8787 20.0285 29.8787 21.1586C29.7738 22.2887 29.8787 23.6242 29.3543 24.6516C28.8298 25.7817 27.8859 26.1926 26.7322 26.2953C25.4736 26.3981 17.7124 26.3981 15.1953 26.2953C14.0416 26.1926 12.6781 26.1926 11.8391 25.268C11.1049 24.4461 11.1049 23.2133 11 22.1859C11 20.9531 11 19.2066 11 17.9738C11 16.8437 11 15.5082 11.5244 14.4808C12.0488 13.4535 13.0976 13.248 14.2513 13.1453C15.5099 13.0426 23.1662 12.9398 25.6834 13.0426ZM18.3417 16.5355V22.6996L24.1102 19.6176L18.3417 16.5355Z" fill="#4C4C4C"/>
</svg>

<svg width="40" height="40" fill="none" xmlns="http://www.w3.org/2000/svg"><rect x=".95" y=".393" width="38.544" height="38.544" rx="19.272" stroke="#4C4C4C" stroke-width=".787"/><path d="M25.683 13.043c1.05.102 2.413 0 3.147.821.839.822.944 2.158.944 3.185.105 1.233.105 2.98.105 4.11-.105 1.13 0 2.465-.525 3.493-.524 1.13-1.468 1.54-2.622 1.643-1.258.103-9.02.103-11.537 0-1.153-.102-2.517-.102-3.356-1.027-.734-.822-.734-2.055-.839-3.082v-4.212c0-1.13 0-2.466.524-3.493.525-1.027 1.574-1.233 2.727-1.336 1.259-.102 8.915-.205 11.432-.102zm-7.341 3.492V22.7l5.768-3.082-5.768-3.082z" fill="#4C4C4C"/></svg>
